X:1
T:All Glory Be Thine
T:John Robson Sweney
T:All Glory Be Thine
T:Public Domain
T:Public Domain
C:John Robson Sweney
Z:Public Domain
%%score ( 1 2 ) ( 3 4 )
L:1/8
M:6/8
K:Ab
V:1 treble 
V:2 treble 
V:3 bass 
V:4 bass 
V:1
 [Ec]3 [DB][DA][DF] | [CE]3 [CA]3 | [EB]3 [EB][Ec][Ed] | [Ec]3- [Ec]2 z | [Ec]3 [DB][DA][DF] | %5
w: 1.~Thou on- ly art|ho- ly,|Thou on- ly the|Lord; *|Truth, mer- cy and|
w: 2.~Thou on- ly art|ho- ly;|In Thee is our|trust; *|Thy laws are un-|
w: 3.~Thou on- ly art|ho- ly;|The an- gels in|light *|With pro- phets and|
 [CE]3 [EA]3 | [EG]3 [EG][EA][EB] | [EA]3- [EA]2 z | [FA]3 [Ac][GB][FA] | [FA]3 [=EG]3 | %10
w: judg- ment,|Shine forth in Thy|Word. *|Thou rul- est and|reign- est|
w: chang- ing,|Thy stat- utes are|just. *|All na- tions and|peo- ple|
w: mar- tyrs|Their an- thems u-|nite. *|Thou on- ly art|ho- ly,|
 [DF]3 [FA][EG][DF] | [CE]3- [CE]2 z | [Ec]3 [Ec][Ed][_Ge] | (e2 d) (c2 B) | [EA]3 [DG][EA][EB] | %15
w: All o- thers a-|bove; *|Thy throne is e-|ter- * nal, *|ter is love. *|
w: Be- fore Thee shall|fall; *|The Fa- ther, Re-|deem- * er, *|ior of all. *|
w: O An- cient of|days; *|The bound- less cre-|a- * tion *|with Thy praise. *|
 [EA]3- [EA]2 z ||"^Refrain" [Ec]3 [Ec][Ec][Ec] | [Ee]3 [Ee]3 | [FA]3 [FA][FA][FA] | [=Ec]6 | %20
w: |||||
w: |||||
w: |||||
 [DF]3 [FB][FA][DF] | E3 [CA]2 [=DB] | (E2 A) [Ac]2 [EB] | [EA]3- [EA]2 z |] %24
w: ||||
w: ||||
w: ||||
V:2
 x6 | x6 | x6 | x6 | x6 | x6 | x6 | x6 | x6 | x6 | x6 | x6 | x6 | F3 F3 | x6 | x6 || x6 | x6 | x6 | %19
w: |||||||||||||Thy scep-||||||
w: |||||||||||||And Sav-||||||
w: |||||||||||||Is filled||||||
 x6 | x6 | E3 x3 | c3 x3 | x6 |] %24
w: |||||
w: |||||
w: |||||
V:3
 [A,,A,]3 [D,F,][D,F,][D,A,] | [A,,A,]3 [A,,E,]3 | [E,G,]3 [E,G,][E,A,][E,B,] | %3
w: ~ ~ ~ ~|~ ~|~ ~ ~ ~|
 [A,,A,]3- [A,,A,]2 z | [A,,A,]3 [D,F,][D,F,][D,A,] | [A,,A,]3 [A,,C]3 | [E,B,]3 [E,B,][E,C][E,D] | %7
w: ~ *|~ ~ ~ ~|~ ~|~ ~ ~ ~|
 [A,,A,C]3- [A,,A,C]2 z | [F,C]3 [F,C][F,C][F,C] | [C,C]3 (C2 B,) | [D,A,]3 [D,A,][D,A,][D,A,] | %11
w: ~ *|~ ~ ~ ~|~ ~ *|~ ~ ~ ~|
 [A,,A,]3- [A,,A,]2 z | A,3 A,[A,B,][A,C] | [D,D]3 (E2 D) | [E,C]3 [E,B,][E,C][E,D] | %15
w: ~ *|~ ~ ~ ~|~ ~ *|~ Thy reign ev-|
 [A,,A,C]3- [A,,A,C]2 z || A,3 A,A,A, | [G,B,]3 [G,B,]3 | [F,C]3 [F,C][F,C][F,C] | [C,C]6 | %20
w: er- *|last- ing, Thy king-|forth and|for- ev- er All|glo-|
 [D,A,]3 [D,D][D,D][D,A,] | [C,A,]3 [F,A,]2 [F,A,] | (A,2 C) [E,E]2 [E,D] | %23
w: ry be Thine. *|||
 [A,,A,C]3- [A,,A,C]2 z |] %24
w: |
V:4
 x6 | x6 | x6 | x6 | x6 | x6 | x6 | x6 | x6 | x3 C,3 | x6 | x6 | A,3 A, x2 | x3 D,3 | x6 | x6 || %16
w: |||||||||~|||~ ~|~|||
 A,3 A,A,A, | x6 | x6 | x6 | x6 | x6 | E,3 x3 | x6 |] %24
w: dom di- vine, Hence-||||||||

